img/cross-white.svg

<?xml version="1.0" encoding="UTF-8"?>
<svg width="14px" height="14px" viewBox="0 0 14 14" version="1.1" xmlns="http://www.w3.org/2000/svg" xmlns:xlink="http://www.w3.org/1999/xlink">
    <!-- Generator: Sketch 51.2 (57519) - http://www.bohemiancoding.com/sketch -->
    <title>cross-white</title>
    <desc>Created with Sketch.</desc>
    <defs></defs>
    <g id="Events" stroke="none" stroke-width="1" fill="none" fill-rule="evenodd">
        <g id="Assets" transform="translate(-790.000000, -401.000000)">
            <rect id="Rectangle" fill="#333333" x="720" y="-6" width="748" height="1210"></rect>
            <g id="151882" transform="translate(791.000000, 402.250000)" fill="#FFFFFF" fill-rule="nonzero" stroke="#FFFFFF">
                <path d="M7.06126618,5.7858349 L11.7801172,1.2353246 C12.0732943,0.952847524 12.0732943,0.494515803 11.7801172,0.212038727 C11.48694,-0.0706795758 11.0121532,-0.0706795758 10.718976,0.212038727 L6.00012508,4.76254903 L1.28102395,0.212038727 C0.987846824,-0.0706795758 0.513059974,-0.0706795758 0.219882846,0.212038727 C-0.073294282,0.494515803 -0.073294282,0.952847524 0.219882846,1.2353246 L4.93898397,5.7858349 L0.219882846,10.3363452 C-0.073294282,10.6188223 -0.073294282,11.077154 0.219882846,11.3596311 C0.36647141,11.500749 0.55858748,11.5714286 0.750453399,11.5714286 C0.942319318,11.5714286 1.13443539,11.500749 1.28102395,11.3593898 L6.00012508,6.80887954 L10.718976,11.3593898 C10.8655646,11.500749 11.0576807,11.5714286 11.2495466,11.5714286 C11.4414125,11.5714286 11.6335286,11.500749 11.7801172,11.3593898 C12.0732943,11.0769128 12.0732943,10.618581 11.7801172,10.336104 L7.06126618,5.7858349 Z" id="Shape"></path>
            </g>
        </g>
    </g>
</svg>

<svg height="14" viewBox="0 0 14 14" width="14" xmlns="http://www.w3.org/2000/svg"><g fill="none" fill-rule="evenodd"><path d="m-70-407h748v1210h-748z" fill="#333"/><path d="m7.06126618 5.7858349 4.71885102-4.5505103c.2931771-.28247708.2931771-.7408088 0-1.02328587-.2931772-.28271831-.767964-.28271831-1.0611412 0l-4.71885092 4.5505103-4.71910113-4.5505103c-.29317713-.28271831-.76796398-.28271831-1.0611411 0-.29317713.28247707-.29317713.74080879 0 1.02328587l4.71910112 4.5505103-4.71910112 4.5505103c-.29317713.2824771-.29317713.7408088 0 1.0232859.14658856.1411179.33870463.2117975.53057055.2117975s.38398199-.0706796.53057055-.2120388l4.71910113-4.55051026 4.71885092 4.55051026c.1465886.1413592.3387047.2120388.5305706.2120388s.383982-.0706796.5305706-.2120388c.2931771-.282477.2931771-.7408088 0-1.0232858z" fill="#fff" fill-rule="nonzero" stroke="#fff" transform="translate(1 1.25)"/></g></svg>
